X: 33741
T: Rattigan's
R: reel
M: 4/4
K: Gmajor
~G2 BA GABG|~g2 fg edBA|GABG GABG|ABAG FDED|
BG ~G2 EGDE|G2 g2 edBA|GABG GABG|AGFA ~G3z:|
dg ~g2 gfed|eaag agef|gded gded|ezgg gfed|
BG ~G2 EGDE|G2g2 edBA|GABG GABG|AGFA ~G3z:|

